X: 11233
Q: "Moderate."
M: 3/8
L: 1/16
K: C
!segno!G2 |\
EGcGec | ag g2 ec | gf f2 dB | ag g2 G2 |\
EGcGec | ag g2 ec | gf f2 dB | c4 :|\
|: ef |\
g3ec'g | a3efd | cBagAB | cBcdef |
g3ec'g | a3efd | cBagfd | c4 H:|\
|: "^Minore."E2 |\
cBcde^g | aefdec | dBcAB^G | !segno!A4"D.C."y :|


